assets/images/envelope_n.svg

<svg xmlns="http://www.w3.org/2000/svg" width="45" height="45" viewBox="1138.75 328.75 45 45"><path fill="#FFF" d="M1161.25 328.75c-12.427 0-22.5 10.073-22.5 22.5s10.073 22.5 22.5 22.5 22.5-10.073 22.5-22.5-10.073-22.5-22.5-22.5zm-13.281 17.604l7.269 4.442-7.269 9.138v-13.58zm.83 14.541l7.51-9.443 4.926 3.012 4.918-3.028 7.518 9.46h-24.872zm25.732-.921l-7.311-9.197 7.311-4.502v13.699zm0-15.163L1161.234 353l-13.265-8.106v-2.208h26.563v2.125z"/></svg>

<?xml version="1.0" encoding="utf-8"?>
<!-- Generator: Adobe Illustrator 16.0.0, SVG Export Plug-In . SVG Version: 6.00 Build 0)  -->
<!DOCTYPE svg PUBLIC "-//W3C//DTD SVG 1.1//EN" "http://www.w3.org/Graphics/SVG/1.1/DTD/svg11.dtd">
<svg version="1.1" id="Layer_1" xmlns="http://www.w3.org/2000/svg" xmlns:xlink="http://www.w3.org/1999/xlink" x="0px" y="0px"
	 width="45px" height="45px" viewBox="1138.75 328.75 45 45" enable-background="new 1138.75 328.75 45 45" xml:space="preserve">
<path fill="#FFFFFF" d="M1161.25,328.75c-12.427,0-22.5,10.073-22.5,22.5s10.073,22.5,22.5,22.5s22.5-10.073,22.5-22.5
	S1173.677,328.75,1161.25,328.75z M1147.969,346.354l7.269,4.442l-7.269,9.138V346.354z M1148.799,360.895l7.51-9.443l4.926,3.012
	l4.918-3.028l7.518,9.46H1148.799z M1174.531,359.974l-7.311-9.197l7.311-4.502V359.974z M1174.531,344.811L1161.234,353
	l-13.265-8.106v-2.208h26.563V344.811z"/>
</svg>
